glyphs/uni22D4.svg

<?xml version="1.0" encoding="UTF-8" standalone="no"?>
<svg
   viewBox="0 -1000 1000 1000"
   version="1.1"
   id="svg1"
   sodipodi:docname="uni22D4.svg"
   inkscape:version="1.3 (0e150ed, 2023-07-21)"
   xml:space="preserve"
   xmlns:inkscape="http://www.inkscape.org/namespaces/inkscape"
   xmlns:sodipodi="http://sodipodi.sourceforge.net/DTD/sodipodi-0.dtd"
   xmlns="http://www.w3.org/2000/svg"
   xmlns:svg="http://www.w3.org/2000/svg"><defs
     id="defs1" /><sodipodi:namedview
     id="namedview1"
     pagecolor="#ffffff"
     bordercolor="#666666"
     borderopacity="1.0"
     inkscape:showpageshadow="2"
     inkscape:pageopacity="0.0"
     inkscape:pagecheckerboard="0"
     inkscape:deskcolor="#d1d1d1"
     inkscape:current-layer="svg1" /><path
     id="path3"
     style="color:#000000;display:inline;fill:#1a1a1a;-inkscape-stroke:none"
     d="m 300,-666.5 c -12.3472,0 -22.82257,4.35733 -31.08203,12.96094 C 260.66888,-644.94626 256.5,-634.33331 256.5,-622 v 66.75781 c -53.0967,8.23306 -99.67363,31.95935 -139.55078,71.17188 l -0.006,0.006 -0.004,0.004 C 66.687585,-433.80869 41.5,-372.68366 41.5,-301 v 216 c 0,12.333309 4.174304,22.795398 12.439453,31.060547 C 62.204602,-45.674304 72.666691,-41.5 85,-41.5 c 12.333309,0 22.94626,-4.168881 31.53906,-12.417969 C 125.14267,-62.177435 129.5,-72.652802 129.5,-85 v -216 c 0,-46.98722 16.15344,-86.86788 48.57031,-119.94727 l 0.002,-0.002 c 23.32337,-22.66749 49.4554,-37.63382 78.42773,-45.07226 V -85 c 0,12.333309 4.17431,22.795398 12.43945,31.060547 C 277.20456,-45.674304 287.66669,-41.5 300,-41.5 c 12.33331,0 22.7954,-4.174304 31.06055,-12.439453 C 339.32569,-62.204602 343.5,-72.666691 343.5,-85 v -381.01953 c 28.96579,7.44082 54.76667,22.40728 77.43945,45.08008 33.75037,33.75036 50.22209,73.94882 49.56055,120.91797 v 0.0137 l 1,215.015622 c 0.002,12.329806 4.17611,22.789387 12.43945,31.052735 C 492.2046,-45.674334 502.66669,-41.5 515,-41.5 c 12.33331,0 22.94626,-4.168881 31.53906,-12.417969 C 555.14267,-62.177435 559.5,-72.652802 559.5,-85 v -0.0039 l -1,-214.98242 v -0.0215 c 0.6647,-71.67849 -24.52715,-132.80657 -75.43945,-183.05274 l -0.002,-0.002 C 443.18297,-522.93736 396.60176,-547.001 343.5,-555.24023 V -622 c 0,-12.33331 -4.16888,-22.94626 -12.41797,-31.53906 C 322.82257,-662.14267 312.3472,-666.5 300,-666.5 Z" /><path
     id="path1"
     style="stroke-width:0.999998;font-variation-settings:normal;opacity:1;vector-effect:none;fill:#21b1ff;fill-opacity:1;stroke-linecap:butt;stroke-linejoin:miter;stroke-miterlimit:4;stroke-dasharray:none;stroke-dashoffset:0;stroke-opacity:1;-inkscape-stroke:none;stop-color:#000000;stop-opacity:1"
     d="M 43 -273.16602 L 43 -85 C 43 -73.000012 47.000008 -62.999992 55 -55 C 62.999992 -47.000008 73.000012 -43 85 -43 C 96.999988 -43 107.16667 -47.000008 115.5 -55 C 123.83333 -62.999992 128 -73.000012 128 -85 L 128 -273.16602 L 43 -273.16602 z M 258 -273.16602 L 258 -85 C 258 -73.000012 262.00001 -62.999992 270 -55 C 277.99999 -47.000008 288.00001 -43 300 -43 C 311.99999 -43 322.00001 -47.000008 330 -55 C 337.99999 -62.999992 342 -73.000012 342 -85 L 342 -273.16602 L 258 -273.16602 z M 472.125 -273.16602 L 473 -85 C 473 -73.000012 477.00001 -62.999992 485 -55 C 492.99999 -47.000008 503.00001 -43 515 -43 C 526.99999 -43 537.16667 -47.000008 545.5 -55 C 553.83332 -62.999992 558 -73.000012 558 -85 L 557.125 -273.16602 L 472.125 -273.16602 z " /><path
     id="path2-2"
     style="stroke-width:0.999998;font-variation-settings:normal;opacity:1;vector-effect:none;fill:#ffd800;fill-opacity:1;stroke-linecap:butt;stroke-linejoin:miter;stroke-miterlimit:4;stroke-dasharray:none;stroke-dashoffset:0;stroke-opacity:1;-inkscape-stroke:none;stop-color:#000000;stop-opacity:1"
     d="M 111.85352 -476.57031 C 65.994052 -427.82112 43 -369.3159 43 -301 L 43 -250.33398 L 128 -250.33398 L 128 -301 C 128 -348.33329 144.33337 -388.6667 177 -422 C 200.99998 -445.33331 228.00003 -460.66667 258 -468 L 258 -250.33398 L 342 -250.33398 L 342 -468 C 371.99997 -460.66667 398.66669 -445.33331 422 -422 C 455.99997 -388.00003 472.66667 -347.33329 472 -300 L 472.23047 -250.33398 L 557.23047 -250.33398 L 557 -300 C 557.64285 -368.78511 534.34632 -427.62161 487.25781 -476.57031 L 111.85352 -476.57031 z " /><path
     id="path3-4"
     style="font-variation-settings:normal;display:inline;opacity:1;vector-effect:none;fill:#ff218c;fill-opacity:1;stroke-width:0.999998;stroke-linecap:butt;stroke-linejoin:miter;stroke-miterlimit:4;stroke-dasharray:none;stroke-dashoffset:0;stroke-opacity:1;-inkscape-stroke:none;stop-color:#000000;stop-opacity:1"
     d="m 300,-665 c -11.99999,0 -22.00001,4.16667 -30,12.5 -7.99999,8.33333 -12,18.50001 -12,30.5 v 68 c -53.33328,7.99999 -100.00004,31.66671 -140,71 -8.15123,8.15123 -15.56825,16.61577 -22.390625,25.33398 H 228.45898 C 237.96834,-462.01103 247.79658,-465.50583 258,-468 v 10.33398 h 84 V -468 c 10.20333,2.49415 19.98972,5.98903 29.42188,10.33398 H 503.86133 C 497.17984,-466.02896 489.94314,-474.16138 482,-482 c -39.99996,-39.99996 -86.66672,-64.00001 -140,-72 v -68 c 0,-11.99999 -4.00001,-22.16667 -12,-30.5 -7.99999,-8.33333 -18.00001,-12.5 -30,-12.5 z" /></svg>

<?xml version="1.0" encoding="UTF-8" standalone="no"?>
<svg
   viewBox="0 -1000 1000 1000"
   version="1.1"
   id="svg1"
   sodipodi:docname="uni22D4.svg"
   xml:space="preserve"
   inkscape:version="1.3 (0e150ed, 2023-07-21)"
   xmlns:inkscape="http://www.inkscape.org/namespaces/inkscape"
   xmlns:sodipodi="http://sodipodi.sourceforge.net/DTD/sodipodi-0.dtd"
   xmlns="http://www.w3.org/2000/svg"
   xmlns:svg="http://www.w3.org/2000/svg"><defs
     id="defs1" /><sodipodi:namedview
     id="namedview1"
     pagecolor="#ffffff"
     bordercolor="#666666"
     borderopacity="1.0"
     inkscape:showpageshadow="2"
     inkscape:pageopacity="0.0"
     inkscape:pagecheckerboard="0"
     inkscape:deskcolor="#d1d1d1"
     inkscape:current-layer="svg1" /><path
     id="path34"
     style="color:#000000;fill:#000000;-inkscape-stroke:none"
     d="M 300 -666.5 C 287.6528 -666.5 277.17743 -662.14267 268.91797 -653.53906 C 260.66888 -644.94626 256.5 -634.33331 256.5 -622 L 256.5 -555.24219 C 203.4033 -547.00913 156.82637 -523.28284 116.94922 -484.07031 L 116.94336 -484.06445 L 116.93945 -484.06055 C 66.687585 -433.80869 41.5 -372.68366 41.5 -301 L 41.5 -85 C 41.5 -72.666691 45.674304 -62.204602 53.939453 -53.939453 C 62.204602 -45.674304 72.666691 -41.5 85 -41.5 C 97.333309 -41.5 107.94626 -45.668881 116.53906 -53.917969 C 125.14267 -62.177435 129.5 -72.652802 129.5 -85 L 129.5 -301 C 129.5 -347.98722 145.65344 -387.86788 178.07031 -420.94727 L 178.07227 -420.94922 C 201.39564 -443.61671 227.52767 -458.58304 256.5 -466.02148 L 256.5 -85 C 256.5 -72.666691 260.67431 -62.204602 268.93945 -53.939453 C 277.20456 -45.674304 287.66669 -41.5 300 -41.5 C 312.33331 -41.5 322.7954 -45.674304 331.06055 -53.939453 C 339.32569 -62.204602 343.5 -72.666691 343.5 -85 L 343.5 -466.01953 C 372.46579 -458.57871 398.26667 -443.61225 420.93945 -420.93945 C 454.68982 -387.18909 471.16154 -346.99063 470.5 -300.02148 L 470.5 -300.00781 L 471.5 -84.992188 C 471.502 -72.662382 475.67611 -62.202801 483.93945 -53.939453 C 492.2046 -45.674334 502.66669 -41.5 515 -41.5 C 527.33331 -41.5 537.94626 -45.668881 546.53906 -53.917969 C 555.14267 -62.177435 559.5 -72.652802 559.5 -85 L 559.5 -85.003906 L 558.5 -299.98633 L 558.5 -300.00781 C 559.1647 -371.6863 533.97285 -432.81438 483.06055 -483.06055 L 483.05859 -483.0625 C 443.18297 -522.93736 396.60176 -547.001 343.5 -555.24023 L 343.5 -622 C 343.5 -634.33331 339.33112 -644.94626 331.08203 -653.53906 C 322.82257 -662.14267 312.3472 -666.5 300 -666.5 z " /><path
     id="path31"
     style="font-variation-settings:normal;display:inline;opacity:1;vector-effect:none;fill:#770088;fill-opacity:1;stroke-width:1;stroke-linecap:butt;stroke-linejoin:miter;stroke-miterlimit:4;stroke-dasharray:none;stroke-dashoffset:0;stroke-opacity:1;-inkscape-stroke:none;stop-color:#000000;stop-opacity:1"
     d="m 43,-153.96289 c 0.003,23.22124 -0.0061,46.44252 0.0046,69.663725 0.06554,7.392054 1.843398,14.845644 5.667298,21.213228 3.572498,5.954646 8.652236,11.009319 14.631224,14.542235 6.441356,3.811381 13.96866,5.535427 21.416017,5.54297 7.62285,0.07177 15.332521,-1.628125 21.985591,-5.416261 5.77406,-3.28517 10.80986,-7.890626 14.55396,-13.381346 4.02016,-5.889217 6.21905,-12.919639 6.64043,-20.015719 0.1754,-3.183565 0.0736,-6.373645 0.1009,-9.560446 0,-20.862796 0,-41.725586 0,-62.588386 -28.333331,0 -56.666665,0 -84.999998,0 z m 215,0 c 0.003,23.22124 -0.006,46.44252 0.005,69.663725 0.0655,7.392054 1.8434,14.845643 5.6673,21.213228 3.5725,5.954645 8.65223,11.00932 14.63122,14.542235 6.44136,3.811382 13.96866,5.535426 21.41602,5.54297 7.50708,0.06992 15.11817,-1.574156 21.65066,-5.353456 6.01509,-3.472904 11.13213,-8.489626 14.76334,-14.407377 3.87901,-6.317874 5.73198,-13.7405 5.85516,-21.119296 0.0269,-8.801982 0.004,-17.604309 0.0117,-26.406429 0,-14.55853 0,-29.11707 0,-43.6756 -28,0 -56,0 -84,0 z m 214.67969,0 c 0.11122,23.31424 0.2107,46.62861 0.32928,69.942778 0.10394,7.383194 1.93186,14.816175 5.79254,21.150606 3.61173,5.930098 8.71638,10.959523 14.71949,14.452513 6.47488,3.774012 14.0226,5.447758 21.479,5.416993 7.61554,0.03276 15.30625,-1.717797 21.92789,-5.543702 5.75197,-3.322091 10.7662,-7.951154 14.47345,-13.467406 4.01101,-5.958921 6.1594,-13.06294 6.52237,-20.213015 0.14386,-3.15332 0.0337,-6.310981 0.0452,-9.4664 -0.0964,-20.757457 -0.19282,-41.514907 -0.28923,-62.272367 -28.33333,0 -56.66667,0 -85,0 z" /><path
     id="path30"
     style="font-variation-settings:normal;display:inline;opacity:1;vector-effect:none;fill:#004cff;fill-opacity:1;stroke-width:1;stroke-linecap:butt;stroke-linejoin:miter;stroke-miterlimit:4;stroke-dasharray:none;stroke-dashoffset:0;stroke-opacity:1;-inkscape-stroke:none;stop-color:#000000;stop-opacity:1"
     d="m 43,-261.10352 v 114.4375 h 85 v -114.4375 z m 215,0 v 114.4375 h 84 v -114.4375 z m 214.18164,0 0.53125,114.4375 h 85 l -0.53125,-114.4375 z" /><path
     id="path29"
     style="font-variation-settings:normal;display:inline;opacity:1;vector-effect:none;fill:#028121;fill-opacity:1;stroke-width:1;stroke-linecap:butt;stroke-linejoin:miter;stroke-miterlimit:4;stroke-dasharray:none;stroke-dashoffset:0;stroke-opacity:1;-inkscape-stroke:none;stop-color:#000000;stop-opacity:1"
     d="m 49.962891,-363.07227 c -4.474903,18.75063 -6.608198,38.02079 -6.925054,57.28177 -0.07156,7.24701 -0.02411,14.49467 -0.03784,21.74198 0,11.23818 0,22.47636 0,33.71454 28.333333,0 56.666667,0 85.000003,0 0.004,-17.44239 -0.009,-34.88483 0.007,-52.3272 0.14487,-18.16356 2.75048,-36.37744 8.45279,-53.65038 0.75661,-2.26984 1.56625,-4.52175 2.40962,-6.76071 -29.63542,0 -59.270836,0 -88.906252,0 z m 208.037109,0 c 0,37.57943 0,75.15886 0,112.73829 28,0 56,0 84,0 0,-37.57943 0,-75.15886 0,-112.73829 -28,0 -56,0 -84,0 z m 203.11133,0 c 3.77282,9.59219 6.5196,19.57596 8.3003,29.72555 1.97956,11.18822 2.75925,22.57056 2.59106,33.9258 0.0759,16.36231 0.15185,32.72463 0.22778,49.08694 28.33333,0 56.66667,0 85,0 -0.0738,-16.69462 -0.16234,-33.38927 -0.22685,-50.08387 0.16673,-21.0479 -1.90174,-42.15677 -6.75557,-62.65442 -29.71224,0 -59.42448,0 -89.13672,0 z" /><path
     d="m 108.91797,-473.5 c -17.277841,18.88897 -31.937624,40.24536 -42.760778,63.46829 -8.325983,17.83414 -14.442758,36.70105 -18.147426,56.03171 29.272785,0 58.545574,0 87.818354,0 1.74221,-5.68206 3.68179,-11.31197 6.10285,-16.74442 7.46677,-17.14439 18.031,-32.86995 30.67421,-46.6215 2.61586,-2.87272 5.33866,-5.64735 8.21672,-8.25874 14.8885,-13.8001 31.92961,-25.38163 50.59173,-33.44418 8.58779,-3.7233 17.49376,-6.71018 26.58637,-8.93116 0,38 0,76 0,114 28,0 56,0 84,0 0,-38 0,-76 0,-114 18.22291,4.42651 35.64899,12.0654 51.28231,22.41855 14.55828,9.62319 27.61814,21.44234 38.98592,34.66549 12.0081,14.01298 21.9109,29.9103 28.60523,47.13242 1.22208,3.22077 2.27731,6.50128 3.3199,9.78354 29.32227,0 58.64453,0 87.9668,0 -2.24965,-12.00986 -5.53365,-23.81852 -9.66921,-35.31335 -8.28107,-23.02492 -20.30238,-44.65841 -35.18011,-64.06897 -5.0651,-6.62196 -10.45219,-12.99636 -16.11162,-19.11768 -127.42708,-0.33333 -254.85417,-0.66667 -382.28125,-1 z"
     style="font-variation-settings:normal;display:inline;opacity:1;vector-effect:none;fill:#ffee00;fill-opacity:1;stroke-width:1;stroke-linecap:butt;stroke-linejoin:miter;stroke-miterlimit:4;stroke-dasharray:none;stroke-dashoffset:0;stroke-opacity:1;-inkscape-stroke:none;stop-color:#000000;stop-opacity:1"
     id="path28" /><path
     d="m 258,-622 c 0,22.66667 0,45.33333 0,68 -23.47014,3.50115 -46.47628,10.26663 -67.97773,20.33045 -22.07287,10.28935 -42.4897,24.00195 -60.71732,40.12681 -6.07349,5.36671 -11.93525,10.97691 -17.47153,16.898 -4.64526,4.95622 -9.16052,10.04138 -13.395937,15.35385 -0.949007,1.20336 -1.883644,2.41795 -2.828108,3.62487 44.283205,0 88.566405,0 132.849605,0 3.9204,-1.82637 7.89326,-3.54486 11.96853,-4.99865 5.75287,-2.10153 11.62298,-3.8813 17.57249,-5.33533 0,3.44466 0,6.88932 0,10.33398 28,0 56,0 84,0 0,-3.44466 0,-6.88932 0,-10.33398 8.31444,2.0449 16.49286,4.68626 24.3716,8.04529 1.71165,0.73072 3.39368,1.55381 5.09604,2.28869 44.13123,0 88.26246,0 132.39369,0 -2.06446,-2.63541 -4.14645,-5.25816 -6.35562,-7.77483 -7.08589,-8.22704 -14.70107,-15.98643 -22.60563,-23.42561 -17.93059,-16.78564 -38.10959,-31.24523 -60.09246,-42.24682 -20.86206,-10.4812 -43.29038,-17.78613 -66.27877,-21.8216 -2.17158,-0.3831 -4.34813,-0.73801 -6.52885,-1.06512 -0.003,-22.88783 0.005,-45.7757 -0.004,-68.66351 -0.06,-9.10592 -2.55111,-18.3719 -8.05043,-25.72872 -5.88113,-8.00959 -14.97983,-13.35369 -24.66285,-15.29984 -12.3281,-2.54217 -25.84183,0.0686 -35.87599,7.81385 -6.96574,5.30795 -11.87148,13.11442 -13.94891,21.59671 -1.01202,4.00913 -1.45859,8.15024 -1.45798,12.28151 z"
     style="font-variation-settings:normal;display:inline;opacity:1;vector-effect:none;fill:#ff8d00;fill-opacity:1;stroke-width:1;stroke-linecap:butt;stroke-linejoin:miter;stroke-miterlimit:4;stroke-dasharray:none;stroke-dashoffset:0;stroke-opacity:1;-inkscape-stroke:none;stop-color:#000000;stop-opacity:1"
     id="path27" /><path
     d="m 300,-665 c -4.83564,-0.004 -9.69339,0.69052 -14.27055,2.27653 -4.15415,1.42882 -8.04765,3.59468 -11.47808,6.33634 -2.81939,2.25168 -5.34792,4.86227 -7.54947,7.71925 -2.79832,3.63684 -5.00039,7.73558 -6.44586,12.09252 -1.58049,4.72944 -2.27211,9.73007 -2.25604,14.70879 0,20.17753 0,40.35506 0,60.53259 28,0 56,0 84,0 -4.9e-4,-20.31564 9.8e-4,-40.63129 -7.3e-4,-60.94693 -0.0216,-4.99056 -0.7638,-9.9974 -2.39983,-14.7204 -1.49761,-4.35448 -3.75575,-8.4392 -6.6033,-12.05552 -2.69161,-3.41146 -5.84768,-6.47219 -9.4239,-8.94849 -3.59409,-2.49473 -7.62035,-4.36113 -11.84399,-5.5008 C 307.91195,-664.5433 303.95073,-665.00148 300,-665 Z"
     style="font-variation-settings:normal;display:inline;opacity:1;vector-effect:none;fill:#e50000;fill-opacity:1;stroke-width:1;stroke-linecap:butt;stroke-linejoin:miter;stroke-miterlimit:4;stroke-dasharray:none;stroke-dashoffset:0;stroke-opacity:1;-inkscape-stroke:none;stop-color:#000000;stop-opacity:1"
     id="path26" /></svg>
